Catalina-light/apps/scalable/AdobeSpeedgrade.svg

<?xml version="1.0" encoding="UTF-8" standalone="no"?>
<!-- Created with Inkscape (http://www.inkscape.org/) -->

<svg
   xmlns:dc="http://purl.org/dc/elements/1.1/"
   xmlns:cc="http://creativecommons.org/ns#"
   xmlns:rdf="http://www.w3.org/1999/02/22-rdf-syntax-ns#"
   xmlns:svg="http://www.w3.org/2000/svg"
   xmlns="http://www.w3.org/2000/svg"
   xmlns:xlink="http://www.w3.org/1999/xlink"
   xmlns:sodipodi="http://sodipodi.sourceforge.net/DTD/sodipodi-0.dtd"
   xmlns:inkscape="http://www.inkscape.org/namespaces/inkscape"
   version="1.1"
   id="svg2"
   width="128"
   height="128"
   viewBox="0 0 128 128"
   sodipodi:docname="AdobeSpeedgrade.svg"
   inkscape:version="0.92.4 (5da689c313, 2019-01-14)">
  <metadata
     id="metadata8">
    <rdf:RDF>
      <cc:Work
         rdf:about="">
        <dc:format>image/svg+xml</dc:format>
        <dc:type
           rdf:resource="http://purl.org/dc/dcmitype/StillImage" />
        <dc:title></dc:title>
      </cc:Work>
    </rdf:RDF>
  </metadata>
  <defs
     id="defs6">
    <linearGradient
       inkscape:collect="always"
       id="linearGradient835">
      <stop
         style="stop-color:#0e3c49;stop-opacity:1"
         offset="0"
         id="stop831" />
      <stop
         style="stop-color:#0a2932;stop-opacity:1"
         offset="1"
         id="stop833" />
    </linearGradient>
    <linearGradient
       inkscape:collect="always"
       id="linearGradient825">
      <stop
         style="stop-color:#31d5dd;stop-opacity:1"
         offset="0"
         id="stop821" />
      <stop
         style="stop-color:#21c1cd;stop-opacity:1"
         offset="1"
         id="stop823" />
    </linearGradient>
    <linearGradient
       inkscape:collect="always"
       xlink:href="#linearGradient825"
       id="linearGradient827"
       x1="1.3016944"
       y1="1.6271178"
       x2="16.054235"
       y2="17.464407"
       gradientUnits="userSpaceOnUse"
       gradientTransform="matrix(4.8138973,0,0,4.8138973,2.6266499,2.444392)" />
    <linearGradient
       inkscape:collect="always"
       xlink:href="#linearGradient835"
       id="linearGradient837"
       x1="4.6644068"
       y1="5.0983052"
       x2="20.338984"
       y2="21.206779"
       gradientUnits="userSpaceOnUse"
       gradientTransform="matrix(4.8138973,0,0,4.8138973,2.6266499,2.444392)" />
  </defs>
  <sodipodi:namedview
     pagecolor="#ffffff"
     bordercolor="#666666"
     borderopacity="1"
     objecttolerance="10"
     gridtolerance="10"
     guidetolerance="10"
     inkscape:pageopacity="0"
     inkscape:pageshadow="2"
     inkscape:window-width="1920"
     inkscape:window-height="1023"
     id="namedview4"
     showgrid="false"
     inkscape:zoom="2.3046875"
     inkscape:cx="96.108492"
     inkscape:cy="63.574039"
     inkscape:window-x="0"
     inkscape:window-y="29"
     inkscape:window-maximized="1"
     inkscape:current-layer="svg2" />
  <rect
     style="opacity:1;fill:url(#linearGradient827);fill-opacity:1;stroke:none;stroke-width:0.48138973;stroke-linecap:square;stroke-linejoin:miter;stroke-miterlimit:4;stroke-dasharray:none;stroke-dashoffset:0;stroke-opacity:1;paint-order:fill markers stroke"
     id="rect819"
     width="115.40299"
     height="115.40299"
     x="6.2819452"
     y="6.6218891" />
  <path
     style="opacity:1;fill:url(#linearGradient837);fill-opacity:1;stroke:none;stroke-width:0.48138973;stroke-linecap:square;stroke-linejoin:miter;stroke-miterlimit:4;stroke-dasharray:none;stroke-dashoffset:0;stroke-opacity:1;paint-order:fill markers stroke"
     d="M 15.159102,15.760113 H 111.76341 V 112.36444 H 15.159102 Z"
     id="rect829"
     inkscape:connector-curvature="0" />
  <path
     style="opacity:1;fill:#000000;fill-opacity:0.26373632;stroke:none;stroke-width:0.48138973;stroke-linecap:square;stroke-linejoin:miter;stroke-miterlimit:4;stroke-dasharray:none;stroke-dashoffset:0;stroke-opacity:1;paint-order:fill markers stroke"
     d="M 15.159707,15.757803 V 112.36483 H 111.76672 V 15.757803 Z m 1.955645,1.965081 H 109.80168 V 110.40918 H 17.115352 Z"
     id="rect839"
     inkscape:connector-curvature="0" />
  <text
     xml:space="preserve"
     style="font-style:normal;font-variant:normal;font-weight:bold;font-stretch:normal;font-size:45.27599335px;line-height:1.25;font-family:sans-serif;-inkscape-font-specification:'sans-serif Bold';letter-spacing:0px;word-spacing:0px;fill:#2cbec7;fill-opacity:1;stroke:none;stroke-width:1.13189983"
     x="39.852715"
     y="70.90139"
     id="text931"
     transform="scale(0.84949072,1.1771759)"><tspan
       sodipodi:role="line"
       id="tspan929"
       x="39.852715"
       y="70.90139"
       style="fill:#2cbec7;fill-opacity:1;stroke-width:1.13189983">Sg</tspan></text>
</svg>

<svg width="128" height="128" version="1.1" viewBox="0 0 128 128" xmlns="http://www.w3.org/2000/svg">
<defs>
<linearGradient id="linearGradient827" x1="1.3017" x2="16.054" y1="1.6271" y2="17.464" gradientTransform="matrix(4.8139 0 0 4.8139 2.6266 2.4444)" gradientUnits="userSpaceOnUse"/>
<linearGradient id="linearGradient837" x1="4.6644" x2="20.339" y1="5.0983" y2="21.207" gradientTransform="matrix(4.8139 0 0 4.8139 2.6266 2.4444)" gradientUnits="userSpaceOnUse"/>
</defs>
<rect x="6.2819" y="6.6219" width="115.4" height="115.4" fill="url(#linearGradient827)" style="paint-order:fill markers stroke"/>
<path d="m15.159 15.76h96.604v96.604h-96.604z" fill="url(#linearGradient837)" style="paint-order:fill markers stroke"/>
<path d="m15.16 15.758v96.607h96.607v-96.607zm1.9556 1.9651h92.686v92.686h-92.686z" fill-opacity=".26374" style="paint-order:fill markers stroke"/>
<text transform="scale(.84949 1.1772)" x="39.852715" y="70.90139" fill="#2cbec7" font-family="sans-serif" font-size="45.276px" font-weight="bold" letter-spacing="0px" stroke-width="1.1319" word-spacing="0px" style="line-height:1.25" xml:space="preserve"><tspan x="39.852715" y="70.90139" fill="#2cbec7" stroke-width="1.1319">Sg</tspan></text>
</svg>
